svg/seat_recline_extra.svg

<svg xmlns="http://www.w3.org/2000/svg" viewBox="0 0 24 24"><path d="M5.35 5.64c-.9-.64-1.12-1.88-.49-2.79.64-.9 1.88-1.12 2.79-.49.9.64 1.12 1.88.49 2.79-.64.9-1.88 1.12-2.79.49M16 19H8.93c-1.48 0-2.74-1.08-2.96-2.54L4 7H2l2 9.76A4.99 4.99 0 0 0 8.94 21H16m.23-6h-4.88l-1.03-4.1c1.58.89 3.28 1.54 5.15 1.22V10c-1.63.3-3.44-.28-4.69-1.26L9.14 7.47c-.23-.18-.49-.3-.76-.38a2.2 2.2 0 0 0-.99-.06h-.02a2.27 2.27 0 0 0-1.84 2.61l1.35 5.92A2.99 2.99 0 0 0 9.83 18h6.85l3.82 3 1.5-1.5"/></svg>

<?xml version="1.0" encoding="UTF-8"?><!DOCTYPE svg PUBLIC "-//W3C//DTD SVG 1.1//EN" "http://www.w3.org/Graphics/SVG/1.1/DTD/svg11.dtd"><svg xmlns="http://www.w3.org/2000/svg" xmlns:xlink="http://www.w3.org/1999/xlink" version="1.1" id="mdi-seat-recline-extra" width="24" height="24" viewBox="0 0 24 24"><path d="M5.35,5.64C4.45,5 4.23,3.76 4.86,2.85C5.5,1.95 6.74,1.73 7.65,2.36C8.55,3 8.77,4.24 8.14,5.15C7.5,6.05 6.26,6.27 5.35,5.64M16,19H8.93C7.45,19 6.19,17.92 5.97,16.46L4,7H2L4,16.76C4.37,19.2 6.47,21 8.94,21H16M16.23,15H11.35L10.32,10.9C11.9,11.79 13.6,12.44 15.47,12.12V10C13.84,10.3 12.03,9.72 10.78,8.74L9.14,7.47C8.91,7.29 8.65,7.17 8.38,7.09C8.06,7 7.72,6.97 7.39,7.03H7.37C6.14,7.25 5.32,8.42 5.53,9.64L6.88,15.56C7.16,17 8.39,18 9.83,18H16.68L20.5,21L22,19.5" /></svg>
